X: 234
T: Miss Scot's Reel
C: William Shepherd (17??-1812)
R: strathspey
B: William Shepherd "2nd Collection" 1800 p.23 #4
F: http://imslp.org/wiki/File:PMLP73094-Shepherd_Collections_HMT.pdf
Z: 2012 John Chambers <jc:trillian.mit.edu>
M: C|
L: 1/8
K: D
A |\
Td2f>d c>eA>c | d>df>d f/g/a f>d | Td2f>d c>eA>c | B>ge>c d>AF>D |
Td2f>d c>eA>c | d>df>d f/g/a f>d | Td2f>d c>eA>c | B>ge>c d3 ||
g |\
f>da>d b>da>d | f>da>d c>eAg | f>da>d b>da>d | c>eA>g f<d-d>g |
f>da>d b>da>d | f>da>d c>eA>g | f>ad>f g>be>g | f>aA>g fd-d |]
